frontend/public/assets/material-icons/folder-interface.svg

<svg xmlns="http://www.w3.org/2000/svg" viewBox="0 0 32 32"><path fill="#1976d2" d="m13.844 7.536-1.288-1.072A2 2 0 0 0 11.276 6H4a2 2 0 0 0-2 2v16a2 2 0 0 0 2 2h24a2 2 0 0 0 2-2V10a2 2 0 0 0-2-2H15.124a2 2 0 0 1-1.28-.464"/><path fill="#bbdefb" d="M16 12v14a2 2 0 0 0 2 2h12a2 2 0 0 0 2-2V12a2 2 0 0 0-2-2H18a2 2 0 0 0-2 2m14 14H18v-4h12Zm0-6H18v-4h12Z"/></svg>

<svg xmlns="http://www.w3.org/2000/svg" viewBox="0 0 32 32">
  <path d="M13.84376,7.53645l-1.28749-1.0729A2,2,0,0,0,11.27591,6H4A2,2,0,0,0,2,8V24a2,2,0,0,0,2,2H28a2,2,0,0,0,2-2V10a2,2,0,0,0-2-2H15.12412A2,2,0,0,1,13.84376,7.53645Z" style="fill: #1976d2"/>
  <path d="M16,12V26a2,2,0,0,0,2,2H30a2,2,0,0,0,2-2V12a2,2,0,0,0-2-2H18A2,2,0,0,0,16,12ZM30,26H18V22H30Zm0-6H18V16H30Z" style="fill: #bbdefb;fill-rule: evenodd"/>
</svg>
